dist/icons/svgs/object-ungroup-outline.svg

<svg xmlns="http://www.w3.org/2000/svg" width="24" height="24" fill="currentcolor" class="icon-object-ungroup-outline" viewBox="0 0 24 24">
  <path d="M1.875 4.61719C1.91406 4.92969 2.1875 5.125 2.5 5.125C2.8125 5.125 3.125 4.85156 3.125 4.5C3.125 4.22656 2.89062 3.95312 2.57812 3.91406C2.53906 3.91406 2.5 3.91406 2.5 3.91406C2.14844 3.91406 1.875 4.1875 1.875 4.53906C1.875 4.57812 1.875 4.57812 1.875 4.61719ZM0 4.5C0 3.13281 1.09375 2 2.5 2C3.51562 2 4.41406 2.66406 4.80469 3.5625H12.6562C13.0469 2.66406 13.9453 2 15 2C16.3672 2 17.5 3.13281 17.5 4.5C17.5 5.55469 16.8359 6.45312 15.9375 6.84375V10.9453C16.8359 11.3359 17.5 12.2344 17.5 13.25C17.5 14.6562 16.3672 15.75 15 15.75C13.9453 15.75 13.0469 15.125 12.6562 14.1875H4.80469C4.41406 15.125 3.51562 15.75 2.5 15.75C1.09375 15.75 0 14.6562 0 13.25C0 12.2344 0.625 11.3359 1.5625 10.9453V6.84375C0.625 6.45312 0 5.55469 0 4.5ZM14.375 4.5C14.375 4.85156 14.6484 5.125 15 5.125C15.3125 5.125 15.625 4.85156 15.625 4.5C15.625 4.1875 15.3125 3.875 15 3.875C14.6484 3.875 14.375 4.1875 14.375 4.5ZM12.6562 5.4375H4.80469C4.53125 6.0625 4.0625 6.57031 3.4375 6.84375V10.9453C4.0625 11.2188 4.53125 11.6875 4.80469 12.3125H12.6562C12.9297 11.6875 13.4375 11.2188 14.0625 10.9453V6.84375C13.4375 6.57031 12.9297 6.0625 12.6562 5.4375ZM15 12.625C14.6484 12.625 14.375 12.9375 14.375 13.25C14.375 13.6016 14.6484 13.875 15 13.875C15.3125 13.875 15.625 13.6016 15.625 13.25C15.625 12.9375 15.3125 12.625 15 12.625ZM3.125 13.25C3.125 12.9375 2.8125 12.625 2.5 12.625C2.1875 12.625 1.91406 12.8594 1.875 13.1719C1.875 13.2109 1.875 13.25 1.875 13.25C1.875 13.6016 2.14844 13.875 2.5 13.875C2.53906 13.875 2.57812 13.875 2.57812 13.875C2.89062 13.8359 3.125 13.5625 3.125 13.25ZM18.3984 11.6875C18.1641 11.2188 17.8516 10.8281 17.5 10.4766V9.8125H20.1562C20.5469 8.91406 21.4453 8.25 22.5 8.25C23.8672 8.25 25 9.38281 25 10.75C25 11.8047 24.3359 12.7031 23.4375 13.0938V17.1953C24.3359 17.5859 25 18.4844 25 19.5C25 20.9062 23.8672 22 22.5 22C21.4453 22 20.5469 21.375 20.1562 20.4375H12.3047C11.9141 21.375 11.0156 22 10 22C8.59375 22 7.5 20.9062 7.5 19.5C7.5 18.4844 8.125 17.5859 9.0625 17.1953V15.75H10.9375V17.1953C11.5625 17.4688 12.0312 17.9375 12.3047 18.5625H20.1562C20.4297 17.9375 20.9375 17.4688 21.5625 17.1953V13.0938C20.9375 12.8203 20.4297 12.3125 20.1562 11.6875H18.3984ZM21.875 10.6719C21.7969 10.9062 21.875 11.1016 22.0703 11.2578C22.2266 11.4141 22.5 11.4531 22.6953 11.375C22.9297 11.2969 23.0469 11.1016 23.0859 10.8672C23.125 10.6719 23.0469 10.4375 22.8906 10.2812C22.7344 10.125 22.4609 10.0859 22.2656 10.1641C22.0312 10.2422 21.875 10.4375 21.875 10.6719ZM10.5859 19.6172C10.6641 19.3828 10.5859 19.1875 10.3906 19.0312C10.2344 18.875 9.96094 18.8359 9.76562 18.9141C9.53125 18.9922 9.41406 19.1875 9.375 19.4219C9.33594 19.6172 9.41406 19.8516 9.57031 20.0078C9.72656 20.1641 10 20.2031 10.1953 20.125C10.4297 20.0469 10.5859 19.8516 10.5859 19.6172ZM22.3828 20.125C22.4219 20.125 22.4609 20.125 22.5 20.125C22.8125 20.125 23.125 19.8516 23.125 19.5C23.125 19.4609 23.125 19.4609 23.0859 19.4219C23.0469 19.1094 22.8125 18.875 22.5 18.875C22.1484 18.875 21.875 19.1875 21.875 19.5C21.875 19.8125 22.0703 20.0859 22.3828 20.125Z"/>
</svg>

<svg xmlns="http://www.w3.org/2000/svg" width="24" height="24" fill="currentColor" class="icon-object-ungroup-outline" viewBox="0 0 24 24">
  <path d="M1.875 4.617c.04.313.313.508.625.508a.64.64 0 0 0 .625-.625c0-.273-.234-.547-.547-.586H2.5a.617.617 0 0 0-.625.625zM0 4.5C0 3.133 1.094 2 2.5 2c1.016 0 1.914.664 2.305 1.563h7.851C13.046 2.664 13.946 2 15 2c1.367 0 2.5 1.133 2.5 2.5 0 1.055-.664 1.953-1.562 2.344v4.101c.898.39 1.562 1.29 1.562 2.305 0 1.406-1.133 2.5-2.5 2.5a2.52 2.52 0 0 1-2.344-1.562H4.805A2.51 2.51 0 0 1 2.5 15.75a2.47 2.47 0 0 1-2.5-2.5c0-1.016.625-1.914 1.563-2.305V6.844A2.52 2.52 0 0 1 0 4.5m14.375 0c0 .352.273.625.625.625a.64.64 0 0 0 .625-.625c0-.312-.312-.625-.625-.625a.64.64 0 0 0-.625.625m-1.719.938H4.805c-.274.625-.742 1.132-1.367 1.406v4.101a2.6 2.6 0 0 1 1.367 1.367h7.851c.274-.624.781-1.093 1.406-1.367V6.844a2.75 2.75 0 0 1-1.406-1.407M15 12.625a.64.64 0 0 0-.625.625c0 .352.273.625.625.625a.64.64 0 0 0 .625-.625c0-.312-.312-.625-.625-.625m-11.875.625c0-.312-.312-.625-.625-.625a.63.63 0 0 0-.625.547v.078c0 .352.273.625.625.625h.078a.63.63 0 0 0 .547-.625m15.273-1.562a4.7 4.7 0 0 0-.898-1.211v-.665h2.656c.39-.898 1.29-1.562 2.344-1.562 1.367 0 2.5 1.133 2.5 2.5 0 1.055-.664 1.953-1.562 2.344v4.101c.898.39 1.562 1.29 1.562 2.305 0 1.406-1.133 2.5-2.5 2.5a2.52 2.52 0 0 1-2.344-1.562h-7.851A2.51 2.51 0 0 1 10 22a2.47 2.47 0 0 1-2.5-2.5c0-1.016.625-1.914 1.563-2.305V15.75h1.874v1.445a2.6 2.6 0 0 1 1.368 1.367h7.851c.274-.625.782-1.093 1.407-1.367v-4.101a2.75 2.75 0 0 1-1.407-1.406zm3.477-1.016c-.078.234 0 .43.195.586.157.156.43.195.625.117.235-.078.352-.273.39-.508a.68.68 0 0 0-.194-.586.61.61 0 0 0-.625-.117c-.235.078-.391.274-.391.508m-11.29 8.945c.08-.234 0-.43-.194-.586a.61.61 0 0 0-.625-.117c-.235.078-.352.273-.391.508a.68.68 0 0 0 .195.586c.157.156.43.195.625.117.235-.078.39-.273.39-.508m11.798.508h.117a.64.64 0 0 0 .625-.625c0-.04 0-.04-.04-.078-.038-.313-.273-.547-.585-.547a.64.64 0 0 0-.625.625c0 .313.195.586.508.625"/>
</svg>
